!!!!SEGMENT: pl-wtm--iii-41-708_kagan-jakub--cow-boy.krn
!!!cenid: 19xx:13
!!!COM: Kagan, Jakub
!!!COM-rismID: pe50046719
!!!CDT: 1896/02/07-1942
!!!CNT: Polish
!!!OTL: Cow-boy
!!!PDT: 1922
!!!AGN: Secular
!!!YEC: Copyright 2022 Narodowy Instytut Fryderyka Chopina (https://polishscores.org)
!!!YEM: License CC-BY-4.0 (https://creativecommons.org/licenses/by/4.0)
!!!SMS-siglum: PL-Wtm
!!!SMS-shelfmark: III.41.708
!!!SMS-variant:
!!!SMS-altvar:
!!!SMS-shelfwork: W
!!!NIFC-rismSourceID: 1001147379
!!!NIFC-rismChildID: 1001147379
!!!NIFC-islandoraID: pl-wtm:20905
!!!URL-pdf-islandora: https://repozytorium.nifc.pl/islandora/object/pl-wtm%3A20905/datastream/PDF/view
!!!URL-scan: https://polish.musicsources.pl/pl/lokalizacje/galeria/druki-muzyczne/17589/2 @EN{Scan on Polish Music Sources Website} @PL{Skany w portalu Dziedzictwo Muzyki Polskiej w otwartym dostępie}
!!!IIIF:
!!!ONB-nifc:
!!!AIN: 1 forte
!!!key:
**kern	**kern	**dynam
*part1	*part1	*part1
*staff2	*staff1	*
*I"Piano	*I"Piano	*
*I'P-no	*I'P-no	*
*Iforte	*Iforte	*
*ICklav	*ICklav	*
*clefF4	*clefG2	*
*k[b-e-a-]	*k[b-e-a-]	*
*c:	*c:	*
*M2/2	*M2/2	*
*met(c|)	*met(c|)	*
=1	=1	=1
*>A	*	*
4CC/ 4C	8r	f
.	4g^\ 4cc 4ee- 4gg	.
4G\ 4c 4e-	.	.
.	8g\ 8cc 8ee- 8gg	.
4AAA-/ 4AA-	8f#X\L 8cc 8ee- 8ff#X	.
.	8g\ 8cc 8ee- 8gg	.
4A-\ 4c 4e-	8a-\ 8cc 8ee- 8aa-	.
.	8f#\J 8cc 8ee- 8ff#	.
=2	=2	=2
*	*^	*
4CC/ 4C	2ryy	8r	.
.	.	4g\ 4cc 4ee- 4gg	.
4G\ 4c 4e-	.	.	.
.	.	8g\ 8cc 8ee- 8gg	.
4EE-/ 4E-	8r	2cc\ 2ee- 2gg 2ccc	.
.	8ee-/L 8gg	.	.
4G\ 4c 4e-	8r	.	.
.	8ee-/J 8gg	.	.
*	*v	*v	*
=3	=3	=3
4DD/ 4D	8r	.
.	4b-\ 4ff 4aa- 4bb-	.
4A-\ 4B- 4d	.	.
.	8a-\ 8aa-	.
4BBB-/ 4BB-	4f\ 4ff	.
4A-\ 4B- 4d	4a-\ 4aa-	.
=4	=4	=4
4EE-/ 4E-	2g\ 2b- 2ee- 2gg	<
8GG/L 8G	.	.
8AA-/J 8A-	.	.
8GG/L 8G	2g\ 2bn 2dd 2ff 2gg	.
8FF/ 8F	.	.
8EE-/ 8E-	.	.
8DD/J 8D	.	[[
!!LO:LB:g=original
=5	=5	=5
4CC/ 4C	8r	f
.	4g^\ 4cc 4ee- 4gg	.
4G\ 4c 4e-	.	.
.	8g\ 8cc 8ee- 8gg	.
4AAA-/ 4AA-	8f#X\L 8cc 8ee- 8ff#X	.
.	8g\ 8cc 8ee- 8gg	.
4A-\ 4c 4e-	8a-\ 8cc 8ee- 8aa-	.
.	8f#\J 8cc 8ee- 8ff#	.
=6	=6	=6
*	*^	*
4CC/ 4C	2r	8r	.
.	.	4g\ 4cc 4ee- 4gg	.
4G\ 4c 4e-	.	.	.
.	.	8g\ 8cc 8ee- 8gg	.
4EE-/ 4E-	8r	2cc\ 2ccc	.
.	8ee-/L 8gg	.	.
4G\ 4c 4e-	8r	.	.
.	8ee-/J 8gg	.	.
*	*v	*v	*
=7	=7	=7
4BBB-/ 4BB-	8r	.
.	4dd^\ 4aa- 4bb- 4ddd	.
4A-\ 4B- 4d	.	.
.	8cc\ 8ccc	.
4DD/ 4D	4a-\ 4aa-	.
4A-\ 4B- 4d	4b-\ 4bb-	.
=8	=8	=8
4EE-/ 4E-	4g\ 4b- 4ee- 4gg	<
4EE-^>/ 4E-	4e-^\ 4ee-	.
4DD^>/ 4D	4f^\ 4ff	.
4CC^>/ 4C	4f#X^\ 4ff#X	[[
=9	=9	=9
4BBBn/ 4BBn	4g^\ 4bn 4dd 4gg	f
4F\ 4G 4Bn	8.dd^\L 8.bbn 8.ddd	.
.	16cc#X\Jk 16bb-X 16ccc#X	.
4GGG/ 4GG	4dd\ 4bbn 4ddd	.
4F\ 4G 4B	8.dd\L 8.bb 8.ddd	.
.	16cc#X\Jk 16bb-X 16ccc#X	.
!!LO:LB:g=original
=10	=10	=10
*	*^	*
4BBBn/ 4BBn	4.ryy	4dd\ 4bbn 4ddd	<
4F\ 4G 4Bn	.	4g\ 4gg	.
*	*cue	*	*
.	8b-/ 8dd	.	.
4GGG/ 4GG	8ryy	4an\ 4aan	.
.	8b-/ 8dd	.	.
4F\ 4G 4B	8ryy	4bn\ 4bbn	.
.	8dd/ 8ff	.	.
=11	=11	=11	=11
4CC/ 4C	2ryy	4.cc\ 4.ccc	.
4G\ 4c 4e-	.	.	.
.	.	8dd\ 8ddd	.
4GGG/ 4GG	8r	[2ee-\ [>2eee-	.
.	8gg/L 8ccc	.	.
4G\ 4c 4e-	8r	.	.
.	8gg/J 8ccc	.	.
=12	=12	=12	=12
4CC/ 4C	4.ryy	4ee-\] 4eee-]	[ >
4EE-/ 4E-	.	4ee-\ 4eee-	.
.	8gg/ 8bb-	.	.
4FF/ 4F	8ryy	4dd\ 4ddd	.
.	8aan/ 8ccc	.	.
4FF#X/ 4F#X	8ryy	4ee-\ 4eee-	.
.	8aa/ 8ccc	.	.
*	*Xcue	*	*
*	*v	*v	*
=13	=13	=13
4GG/ 4G	4dd-X\ 4gg 4bb-X 4ddd-X	] p
4B-\ 4d-X 4e-	8.dd-^\L 8.gg 8.bb- 8.ddd-	.
.	16cc\Jk 16aan 16ccc	.
4EE-/ 4E-	4dd-\ 4gg 4bb- 4ddd-	.
4B-\ 4d- 4e-	8.dd-^\L 8.gg 8.bb- 8.ddd-	<
.	16cc\Jk 16aa 16ccc	.
=14	=14	=14
*	*^	*
4GG/ 4G	4.ryy	4dd-X\ 4gg 4bb-X 4ddd-X	.
4EE-^/ 4E-	.	4g^\ 4gg	.
*	*cue	*	*
.	8dd-X/ 8ee-	.	.
4FF^/ 4F	8ryy	4a-^\ 4aa-	.
.	8dd-/ 8ee-	.	.
4GG^/ 4G	8ryy	4b-^\ 4bb-	.
.	8dd-/ 8ee-	.	.
!!LO:LB:g=original
=15	=15	=15	=15
4AA-\ 4A-	8ryy	4.cc\ 4.ccc	[ ff
.	8aa-/ 8ccc	.	.
4A-\ 4c 4e-	8ryy	.	.
.	8ryy	8dd\ 8ddd	.
4EE-/ 4E-	8r	[2ee-\ [>2eee-	.
.	8aa-/L 8ccc	.	.
4A-\ 4c 4e-	8r	.	.
.	8aa-/J 8ccc	.	.
*	*Xcue	*	*
*	*v	*v	*
=16	=16	=16
4AA-\ 4A-	4ee-\] 4eee-]	.
4A-\ 4c 4e-	4ee-\ 4eee-	.
4EE-/ 4E-	4dd\ 4ddd	.
4A-\ 4c 4e-	4ee-\ 4eee-	.
=17	=17	=17
*	*^	*
4BBBn/ 4BBn	8ryy	4.dd\ 4.ddd	.
.	8gg/ 8bbn	.	.
4D\ 4G 4Bn	8ryy	.	.
.	8ryy	8bn\ 8bb	.
4GGG/ 4GG	8r	[2g\ [>2gg	.
*	*cue	*	*
.	8bn/L 8dd	.	.
4D\ 4G 4B	8r	.	.
.	8b/J 8dd	.	.
=18	=18	=18	=18
4DD/ 4D	4.ryy	4g\] 4gg]	>
4D\ 4G 4Bn	.	4dd\ 4ddd	.
.	8ff/ 8bbn	.	.
4GGG/ 4GG	8ryy	4cc#X\ 4ccc#X	.
.	8ff/ 8bb	.	.
4D\ 4G 4B	8ryy	4dd\ 4ddd	.
.	8ff/ 8bb	.	]]
=19	=19	=19	=19
4CC/ 4C	2ryy	8r	p
.	.	4ee-\ 4gg 4ccc 4eee-	.
4c\ 4e-	.	.	.
.	.	8cc\ 8ccc	.
4GGG/ 4GG	8r	[2g\ [>2gg	.
.	8cc/L 8ee-	.	.
4G\ 4c 4e-	8r	.	.
.	8cc/J 8ee-	.	.
!!LO:LB:g=original
=20	=20	=20	=20
4CC/ 4C	4.ryy	4g\] 4gg]	.
4G\ 4c 4e-	.	4g\ 4gg	.
.	8cc/ 8ee-	.	.
4GGG/ 4GG	8ryy	4f#X\ 4ff#X	.
.	8cc/ 8ee-	.	.
4G\ 4c 4e-	8ryy	4g\ 4gg	.
.	8cc/ 8ee-	.	.
*	*Xcue	*	*
*	*v	*v	*
=21||	=21||	=21||
*>A1	*	*
4AAAn/ 4AAn	8r	.
.	4f#X^\ 4cc 4ee- 4ff#X	.
2C\ 2E- 2F#X 2An	.	.
.	[8f#^\ 8cc 8ee- [8ff#	.
.	8f#/L] 8ff#]	.
.	8e-/ 8ee-	.
4C\ 4E- 4F# 4A	8d/ 8dd	.
.	8c/J 8cc	.
=22	=22	=22
4AAAn/ 4AAn	8r	.
.	4f#X^\ 4cc 4ee- 4ff#X	.
2C\ 2E- 2F#X 2An	.	.
.	[8f#^\ [8cc [8ee- [8ff#	.
.	8f#\L] 8cc] 8ee-] 8ff#]	.
.	8g\ 8gg	.
4C\ 4E- 4F# 4A	8an\ 8aan	.
.	8f#X\J 8ff#X	.
=23	=23	=23
*	*^	*
2GG/ 2G	8r	((2g\ 2gg	f <
*	*cue	*	*
.	4bn/ 4dd	.	.
.	8b/ 8dd	.	.
2AA-\ 2A-	8r	[2g\)) [2gg	.
.	4b/ 4dd	.	.
.	8b/ 8dd	.	[[
=24	=24	=24	=24
4GG^/ 4G	8r	1g] 1gg]	>
.	4bn/ 4dd	.	.
4AA-^<\ 4A-	.	.	.
.	8b/ 8dd	.	.
8GG^/L 8G	8r	.	.
8FF^/ 8F	4b/ 4dd	.	.
8EE-^/ 8E-	.	.	.
8DD^/J 8D	8b/ 8dd	.	]
*	*Xcue	*	*
*	*v	*v	*
!!LO:PB:g=original
=25:|!	=25:|!	=25:|!
*>A2	*	*
2GG/ 2G	4g^\ 4gg	.
.	8g\L 8gg	.
.	8a-\J 8aa-	.
2FF/ 2F	4g^\ 4gg	.
.	8g\L 8gg	.
.	8a-\J 8aa-	.
=26	=26	=26
2EE-/ 2E-	4g^\ 4gg	.
.	8g\L 8gg	.
.	8a-\J 8aa-	.
2DD/ 2D	8g\L 8gg	.
.	8f\ 8ff	.
.	8e-\ 8ee-	.
.	8d\J 8dd	.
=27	=27	=27
4CC/ 4C	4c/ 4cc	.
8GG/L	8G/L 8g	.
8GG/J	8G/J 8g	.
4GG/	4G/ 4g	.
4GG/	4G/ 4g	.
=28	=28	=28
4r	4r	.
4GG^>/ 4G	4g^\ 4bn 4dd 4gg	.
4CC^>/ 4C	4cc^\ 4ee- 4gg 4ccc	.
4r	4r	.
!!LO:LB:g=original
=29!|:	=29!|:	=29!|:
*>B	*	*
*k[]	*k[]	*
*M2/2	*M2/2	*
*met(c|)	*met(c|)	*
!	!LO:TX:b:t=II.ff.	!
!	!LO:TX:b:t=I.p	!
4CC/ 4C	4cc^\ 4ee 4gg 4ccc	p
4G\ 4c 4e	8b\L 8bb	ff
.	[8cc\J [8ccc	.
4GGG/ 4GG	8cc\L] 8ccc]	.
.	8b\ 8bb	.
4G\ 4c 4e	8cc\ 8ccc	.
.	8a\J 8aa	.
=30	=30	=30
4CC/ 4C	4cc^\ 4ee 4gg 4ccc	.
4G\ 4c 4e	8b\L 8bb	.
.	[8cc\J [8ccc	.
4GGG/ 4GG	8cc\L] 8ccc]	.
.	8b\ 8bb	.
4G\ 4c 4e	8cc\ 8ccc	.
.	8a\J 8aa	.
=31	=31	=31
4DD/ 4D	4b^\ 4dd 4ff 4bb	.
4F\ 4G 4B	8a#X\L 8aa#X	.
.	[8b\J [8bb	.
4GGG/ 4GG	8b\L] 8bb]	.
.	8a#\ 8aa#	.
4F\ 4G 4B	8b\ 8bb	.
.	8g\J 8gg	.
=32	=32	=32
*	*^	*
4DD^>/ 4D	8r	1b 1bb	<
*	*cue	*	*
.	8dd/ 8ff	.	.
4CC#X^>/ 4C#X	8r	.	.
.	8dd/ 8ff	.	.
4DD^>/ 4D	8r	.	.
.	8dd/ 8ff	.	.
4EE^>/ 4E	8r	.	.
.	8dd/ 8ff	.	[
*	*Xcue	*	*
*	*v	*v	*
!!LO:LB:g=original
=33	=33	=33
4DD/ 4D	4b^\ 4dd 4ff 4bb	.
4F\ 4G 4B	8a#X\L 8aa#X	.
.	[8b\J [8bb	.
4GGG/ 4GG	8b\L] 8bb]	.
.	8a#\ 8aa#	.
4F\ 4G 4B	8b\ 8bb	.
.	8g\J 8gg	.
=34	=34	=34
4DD/ 4D	4b^\ 4dd 4ff 4bb	.
4F\ 4G 4B	8a#X\L 8aa#X	.
.	[8b\J [8bb	.
4GGG/ 4GG	8b\L] 8bb]	.
.	8a#\ 8aa#	.
4F\ 4G 4B	8b\ 8bb	.
.	8g\J 8gg	.
=35	=35	=35
4CC/ 4C	4a^\ 4cc 4ee 4aa	.
4G\ 4c 4e	8g#X\L 8gg#X	.
.	[8a\J [8aa	.
4GGG/ 4GG	8a\L] 8aa]	.
.	8g#\ 8gg#	.
4G\ 4c 4e	8a\ 8aa	.
.	8e\J 8ee	.
=36	=36	=36
*	*^	*
4CC^/ 4C	8r	1a 1aa	>
*	*cue	*	*
.	8cc/ 8ee	.	.
4CC^/ 4C	8r	.	.
.	8cc/ 8ee	.	.
4BBB^/ 4BB	8r	.	.
.	8cc/ 8ee	.	.
4BBB-X^/ 4BB-X	8r	.	.
.	8cc/ 8ee	.	]]
*	*Xcue	*	*
*	*v	*v	*
!!LO:LB:g=original
=37	=37	=37
4AAA/ 4AA	4g^\ 4cc#X 4ee 4gg	p
4G\ 4A 4c#X	8f#X\L 8ff#X	.
.	[8g\J [8gg	.
4CC#X/ 4C#X	8g\L] 8gg]	.
.	8f#\ 8ff#	.
4G\ 4A 4c#	8g\ 8gg	.
.	8g#X\J 8gg#X	.
=38	=38	=38
*	*^	*
4EE/ 4E	8r	2a\ 2aa	.
*	*cue	*	*
.	8cc#X/ 8ee	.	.
4G\ 4A 4c#X	8r	.	.
.	8cc#/ 8ee	.	.
4AAA/ 4AA	8r	2e\ 2ee	.
.	8a/ 8cc#	.	.
4G\ 4A 4c#	8r	.	.
.	8a/ 8cc#	.	.
*	*Xcue	*	*
*	*v	*v	*
=39	=39	=39
4DD/ 4D	4d^/ 4f#X 4a 4dd	.
4F#X\ 4A 4c	8c#X/L 8cc#X	.
.	[8d/J [8dd	.
4AAA/ 4AA	8d/L] 8dd]	.
.	8c#/ 8cc#	.
4F#\ 4A 4c	8d/ 8dd	.
.	8e/J 8ee	.
=40	=40	=40
*	*^	*
4FF#X/ 4F#X	8r	1d 1dd	.
*	*cue	*	*
.	8f#X/ 8a	.	.
4F#\ 4A 4c	8r	.	.
.	8f#/ 8a	.	.
4AAA/ 4AA	8r	.	.
.	8f#/ 8a	.	.
4F#\ 4A 4c	8r	.	.
.	8f#/ 8a	.	.
*	*Xcue	*	*
*	*v	*v	*
!!LO:LB:g=original
=41	=41	=41
*>B1	*	*
4FF#X/ 4F#X	4d/ 4dd	<
4F#\ 4A 4c	8c#X/L 8cc#X	.
.	[8d/J [8dd	.
4AAA/ 4AA	8d/L] 8dd]	.
.	8e/ 8ee	.
4F#\ 4A 4c	8e#X/ 8ee#X	.
.	8f#X/J 8ff#X	[[
=42	=42	=42
*	*^	*
2DD/ 2D	8r	2b\ 2bb	f >
*	*cue	*	*
.	8dd/ 8ff#X	.	.
.	8r	.	.
.	8dd/ 8ff#	.	.
2CC/ 2C	8r	2a\ 2aa	.
.	8dd/ 8ff#	.	.
.	8r	.	.
.	8dd/ 8ff#	.	.
*	*Xcue	*	*
*	*v	*v	*
=43	=43	=43
4BBB/ 4BB	4dd\ 4ff 4bb 4ddd	.
4F\ 4A 4B	8cc#X\L 8ccc#X	.
.	[8dd\J [8ddd	.
4GGG/ 4GG	8dd\L] 8ddd]	.
.	8b\ 8bb	.
4F\ 4A 4B	8a\ 8aa	.
.	8a-X\J 8aa-X	.
=44	=44	=44
4BBB^>/ 4BB	4g^\ 4gg	.
4GGG^>/ 4GG	4b^\ 4bb	.
4AAA^>/ 4AA	4a^\ 4aa	.
4BBB^>/ 4BB	4g^\ 4gg	]]
!!LO:LB:g=original
=45:|!	=45:|!	=45:|!
*>B2	*	*
4BBB/ 4BB	4d/ 4g 4b 4dd	<
4F\ 4A 4B	8c#X/L 8cc#X	.
.	[8d/J [8dd	.
4GGG/ 4GG	8d/L] 8dd]	.
.	8c#/ 8cc#	.
4F\ 4A 4B	8d/ 8dd	.
.	8e/J 8ee	.
=46	=46	=46
*	*^	*
4BBB/ 4BB	8r	2g\ 2gg	.
*	*cue	*	*
.	8b/ 8ee	.	.
4F\ 4A 4B	8r	.	.
.	8b/ 8ee	.	.
4GGG/ 4GG	8r	2e\ 2ee	.
.	8g/ 8b	.	.
4F\ 4A 4B	8r	.	.
.	8g/ 8b	.	[[
*	*Xcue	*	*
*	*v	*v	*
=47	=47	=47
4CC/ 4C	4c/ 4cc	>
8F#X\L	8f#X\L 8ff#X	.
[8G^\J	[8g^\J [8gg	.
8G\L]	8g\L] 8gg]	.
8D#X\	8d#X\ 8dd#X	.
8E\	8e\ 8ee	.
8Dn\J	8dn\J 8ddn	.
=48	=48	=48
4C/	4c/ 4cc	.
4r	4r	.
4CC/ 4EE 4GG 4C	4cc\ 4ee 4gg 4ccc	]
4r	4r	.
==	==	==
*-	*-	*-
!!!system-decoration: [(s1,s2)]
!!!RDF**kern: > = above
!!!RDF**kern: < = below
!!!ENC: Andrzej Gręziak
!!!END: 2023-09-10
!!!ENC: Leszek Kubiak
!!!END: 2023-10-04
